X:1
T:O Absalom, My Son
T:O Absalom, My Son
T:Charles King (1687-1748)
T:2 Samuel 18:33
T:Creative Commons Attribution 4.0 International (CC BY 4.0) Copyright © 2019 Provided to the Choral Public Domain Library (http://www.cpdl.org) by the Freshman Chorus of St. John's College of Annapolis. Edition may be freely distributed, duplicated, performed, or recorded. 
C:Charles King (1687-1748)
Z:2 Samuel 18:33
Z:Creative Commons Attribution 4.0 International (CC BY 4.0) Copyright © 2019
Z:Provided to the Choral Public Domain Library (http://www.cpdl.org)
Z:by the Freshman Chorus of St. John's College of Annapolis.
Z:Edition may be freely distributed, duplicated, performed, or recorded.
Z:
L:1/8
M:4/4
K:Bb
V:1 treble 
V:1
"^I" G4 A3 A | B2 A2 G2 C2 | D8 | G4 A3 A | B2 B,2 C2 D2 | D6 DD |"^II" G6 FE | D2 C2 (cB) (AG) | %8
w: O, Ab- sa-|lom, my son, my|son!|O, Ab- sa-|lom my son, my|son! Would to|God I had|died for thee, * my *|
 ^F6 DD | G6 FE | D2 G2 B2 A2 | B8 |"^III" B,4 C3 C | D3 E (ED) (CB,) | A,8 | B,4 C3 C | %16
w: son! Would to|God I had|died for thee, my|son!|O, Ab- sa-|lom my son, * my *|son!|O, Ab- sa-|
 D2 D2 G2 ^F2 | G8 :| %18
w: lom, my son, my|son!|

